icons/lines/lamp-slash.svg

<svg xmlns="http://www.w3.org/2000/svg" width="24" height="24" viewBox="0 0 24 24" fill="none" stroke="currentColor" stroke-width="2" stroke-linecap="round" stroke-linejoin="round" >
  <path d="M20.0297 2.47998L4.17969 18.33"/>
  <path d="M5.25008 13C4.83008 12.03 4.58008 10.98 4.58008 9.89999C4.58008 4.98999 8.80008 1.11999 13.6001 2.16999C15.0601 2.48999 16.3601 3.26999 17.3601 4.34999"/>
  <path d="M19.0602 7.29999C20.2802 11.18 18.3102 15.08 15.5202 16.87V18.03C15.5202 18.32 15.6202 18.99 14.6202 18.99H9.42016C8.39016 18.99 8.52016 18.56 8.52016 18.03V16.87C8.04016 16.57 7.59016 16.2 7.16016 15.77"/>
  <path d="M8.5 22C10.79 21.35 13.21 21.35 15.5 22"/>
  </svg>

<svg xmlns="http://www.w3.org/2000/svg" width="24" height="24" viewBox="0 0 24 24" fill="none" stroke="currentColor" stroke-width="2" stroke-linecap="round" stroke-linejoin="round">
  <path d="M19.06 7.3c1.22 3.88-.75 7.78-3.54 9.57v1.16c0 .29.1.96-.9.96h-5.2c-1.03 0-.9-.43-.9-.96v-1.16a7.7 7.7 0 0 1-1.36-1.1" />
  <path d="M20.03 2.48 4.18 18.33" />
  <path d="M5.25 13c-.42-.97-.67-2.02-.67-3.1 0-4.91 4.22-8.78 9.02-7.73a7.26 7.26 0 0 1 3.76 2.18" />
  <path d="M8.5 22a12.8 12.8 0 0 1 7 0" />
</svg>
